icons/desktop/16/svg/share-macos-16.svg

<svg width="16" height="16" viewBox="0 0 16 16" fill="none" xmlns="http://www.w3.org/2000/svg">
<path d="M14.25 10.25C14.6642 10.25 15 10.5858 15 11V12.2559C15 13.6355 13.9763 14.8263 12.5859 14.9873C11.2006 15.1473 9.66484 15.25 8 15.25C6.8148 15.25 5.49245 15.1973 4.05957 15.0557L3.43848 14.9893C2.05011 14.8296 1 13.6482 1 12.2529V11C1 10.5858 1.33579 10.25 1.75 10.25C2.16421 10.25 2.5 10.5858 2.5 11V12.2529C2.5 12.8876 2.97987 13.4265 3.60938 13.499L4.20703 13.5625C5.5866 13.6988 6.85948 13.75 8 13.75C9.60309 13.75 11.0814 13.651 12.4141 13.4971C13.0276 13.4259 13.5 12.8941 13.5 12.2559V11C13.5 10.5858 13.8358 10.25 14.25 10.25Z" fill="black"/>
<path d="M8.00195 1C8.33594 1 8.64974 1.13022 8.88574 1.36621L12.0322 4.51172C12.3252 4.80472 12.3252 5.28024 12.0322 5.57324C11.7392 5.86624 11.2637 5.86624 10.9707 5.57324L8.75 3.35156V11.25C8.74999 11.6642 8.41421 12 8 12C7.58579 12 7.25001 11.6642 7.25 11.25V3.35352L5.03125 5.57324C4.73825 5.86624 4.26273 5.86624 3.96973 5.57324C3.67674 5.28024 3.67673 4.80471 3.96973 4.51172L7.11621 1.36621C7.35221 1.13021 7.666 1 8 1H8.00195Z" fill="black"/>
</svg>

<!-- This Source Code Form is subject to the terms of the Mozilla Public
   - License, v. 2.0. If a copy of the MPL was not distributed with this
   - file, You can obtain one at http://mozilla.org/MPL/2.0/. -->
<svg xmlns="http://www.w3.org/2000/svg" width="16" height="16" fill="context-fill" fill-opacity="context-fill-opacity" viewBox="0 0 16 16">
    <path d="M14.25 10.25A.75.75 0 0 1 15 11v1.256c0 1.38-1.024 2.57-2.414 2.731a40 40 0 0 1-8.526.069l-.622-.067A2.76 2.76 0 0 1 1 12.253V11a.75.75 0 0 1 1.5 0v1.253c0 .635.48 1.174 1.11 1.246l.597.063a38.6 38.6 0 0 0 8.207-.065 1.24 1.24 0 0 0 1.086-1.241V11a.75.75 0 0 1 .75-.75" />
    <path d="M8.002 1c.334 0 .648.13.884.366l3.146 3.146a.75.75 0 0 1-1.061 1.061L8.75 3.352v7.898a.75.75 0 0 1-1.5 0V3.354l-2.219 2.22A.75.75 0 0 1 3.97 4.511l3.146-3.146C7.352 1.13 7.666 1 8 1z" />
</svg>
